X:043
L:1/16
M:2/4
K:G
dc | B2AB d2de | =fece d2d^f | g2dc BAGB | A2AA A2Bc |
defd gddB | cBAc B2AG | GBdg ecAF | G2GG G2 ::
dB | G2GG G2AB | cBAG F2dB | G2GG GBdg | fdef d2dB |

